svgs/sharp-light/people-pants.svg

<svg xmlns="http://www.w3.org/2000/svg" viewBox="0 0 640 512"><!--! Font Awesome Pro 6.6.0 by @fontawesome - https://fontawesome.com License - https://fontawesome.com/license (Commercial License) Copyright 2024 Fonticons, Inc. --><path d="M136 56a24 24 0 1 1 48 0 24 24 0 1 1 -48 0zm80 0A56 56 0 1 0 104 56a56 56 0 1 0 112 0zM108.9 128l-9.6 0-4.5 8.5-76.9 144-7.5 14.1 28.2 15.1 7.5-14.1L96 202.1 96 496l0 16 32 0 0-16 0-144 64 0 0 144 0 16 32 0 0-16 0-293.8 49.9 93.4 7.5 14.1 28.2-15.1-7.5-14.1-76.9-144-4.5-8.5-9.6 0-102.2 0zM192 320l-64 0 0-160 64 0 0 160zM456 56a24 24 0 1 1 48 0 24 24 0 1 1 -48 0zm80 0A56 56 0 1 0 424 56a56 56 0 1 0 112 0zM428.9 128l-9.6 0-4.5 8.5-76.9 144-7.5 14.1 28.2 15.1 7.5-14.1L416 202.1 416 496l0 16 32 0 0-16 0-144 64 0 0 144 0 16 32 0 0-16 0-293.8 49.9 93.4 7.5 14.1 28.2-15.1-7.5-14.1-76.9-144-4.5-8.5-9.6 0-102.2 0zM512 320l-64 0 0-160 64 0 0 160z"/></svg>

<svg xmlns="http://www.w3.org/2000/svg" viewBox="0 0 640 512"><!--! Font Awesome Pro 6.4.0 by @fontawesome - https://fontawesome.com License - https://fontawesome.com/license (Commercial License) Copyright 2023 Fonticons, Inc. --><path d="M136 56a24 24 0 1 1 48 0 24 24 0 1 1 -48 0zm80 0A56 56 0 1 0 104 56a56 56 0 1 0 112 0zM108.9 128H99.3l-4.5 8.5-76.9 144-7.5 14.1 28.2 15.1 7.5-14.1L96 202.1V496v16h32V496 352h64V496v16h32V496 202.2l49.9 93.4 7.5 14.1 28.2-15.1-7.5-14.1-76.9-144-4.5-8.5h-9.6H108.9zM192 320H128V160h64V320zM456 56a24 24 0 1 1 48 0 24 24 0 1 1 -48 0zm80 0A56 56 0 1 0 424 56a56 56 0 1 0 112 0zM428.9 128h-9.6l-4.5 8.5-76.9 144-7.5 14.1 28.2 15.1 7.5-14.1L416 202.1V496v16h32V496 352h64V496v16h32V496 202.2l49.9 93.4 7.5 14.1 28.2-15.1-7.5-14.1-76.9-144-4.5-8.5h-9.6H428.9zM512 320H448V160h64V320z"/></svg>
